view/frontend/web/svg/awesomeicons6/regular/face-smile-wink.svg

<svg xmlns="http://www.w3.org/2000/svg" fill="currentColor" viewBox="0 0 512 512"><!--! Font Awesome Free 6.4.0 by @fontawesome - https://fontawesome.com License - https://fontawesome.com/license/free (Icons: CC BY 4.0, Fonts: SIL OFL 1.1, Code: MIT License) Copyright 2023 Fonticons, Inc. --><path d="M464 256A208 208 0 1 0 48 256a208 208 0 1 0 416 0zM0 256a256 256 0 1 1 512 0A256 256 0 1 1 0 256zm177.6 62.1C192.8 334.5 218.8 352 256 352s63.2-17.5 78.4-33.9c9-9.7 24.2-10.4 33.9-1.4s10.4 24.2 1.4 33.9c-22 23.8-60 49.4-113.6 49.4s-91.7-25.5-113.6-49.4c-9-9.7-8.4-24.9 1.4-33.9s24.9-8.4 33.9 1.4zM144.4 208a32 32 0 1 1 64 0 32 32 0 1 1 -64 0zm165.8 21.7c-7.6 8.1-20.2 8.5-28.3 .9s-8.5-20.2-.9-28.3c14.5-15.5 35.2-22.3 54.6-22.3s40.1 6.8 54.6 22.3c7.6 8.1 7.1 20.7-.9 28.3s-20.7 7.1-28.3-.9c-5.5-5.8-14.8-9.7-25.4-9.7s-19.9 3.8-25.4 9.7z"/></svg>

<svg xmlns="http://www.w3.org/2000/svg" fill="currentColor" viewBox="0 0 512 512"><!--! Font Awesome Free 6.1.1 by @fontawesome - https://fontawesome.com License - https://fontawesome.com/license/free (Icons: CC BY 4.0, Fonts: SIL OFL 1.1, Code: MIT License) Copyright 2022 Fonticons, Inc. --><path d="M256 352C293.2 352 319.2 334.5 334.4 318.1C343.3 308.4 358.5 307.7 368.3 316.7C378 325.7 378.6 340.9 369.6 350.6C347.7 374.5 309.7 400 256 400C202.3 400 164.3 374.5 142.4 350.6C133.4 340.9 133.1 325.7 143.7 316.7C153.5 307.7 168.7 308.4 177.6 318.1C192.8 334.5 218.8 352 256 352zM208.4 208C208.4 225.7 194 240 176.4 240C158.7 240 144.4 225.7 144.4 208C144.4 190.3 158.7 176 176.4 176C194 176 208.4 190.3 208.4 208zM281.9 230.6C273.9 223 273.5 210.4 281 202.3C295.6 186.8 316.3 180 335.6 180C354.1 180 375.7 186.8 390.2 202.3C397.8 210.4 397.4 223 389.3 230.6C381.2 238.1 368.6 237.7 361 229.7C355.6 223.8 346.3 220 335.6 220C324.1 220 315.7 223.8 310.2 229.7C302.7 237.7 290 238.1 281.9 230.6zM512 256C512 397.4 397.4 512 256 512C114.6 512 0 397.4 0 256C0 114.6 114.6 0 256 0C397.4 0 512 114.6 512 256zM256 48C141.1 48 48 141.1 48 256C48 370.9 141.1 464 256 464C370.9 464 464 370.9 464 256C464 141.1 370.9 48 256 48z"/></svg>
